icons/glyphs/glyph-fish.svg

<?xml version="1.0" encoding="UTF-8" standalone="no"?><svg height="16" viewBox="0 0 4.2333332 4.2333332" width="16" xmlns="http://www.w3.org/2000/svg"><sodipodi:namedview/><metadata><rdf:RDF><cc:Work><dc:format>image/svg+xml</dc:format><dc:type/><dc:title/></cc:Work></rdf:RDF></metadata><path d="m2.5887141.32171107c-.2388847.0137738-.9619595-.0113577-1.4376768.3482224.1298956.149561.3656005.39553493.4221216.52177373-.1209098.1107066-.4125375.4251217-.5012461.5232666-.08154969.0902244-.20063743.0089773-.2705908-.1078631-.11347838-.1895385-.27980438-.412922-.80132196-.4538461 0 0 .0454154.8435263.4751201.9633032-.29270462.1544157-.50942526.4888668-.43817046.9793521.39374027-.038606.61753964-.2354531.75802744-.4598178.14048777-.2243647.24879848-.154244.37360188-.040682.1248034.1135623.6939031.7469552 1.2413586.8162513-.056804.1957527-.1467603.3379301-.3444901.4978871.5551401.030478 1.057425-.280034 1.17679-.706522.0966163-.0465818.3480638-.1885934.7117472-.5464068.4172538-.4105194.2914691-.733091.1082362-.9931615-.1439884-.2043689-.6121489-.68525793-.8927629-.79647003-.0975597-.139818-.317158-.4192953-.5807439-.5452871zm.7994558 1.18761373a.24553009.23126608 0 0 1  .2455844.2310285.24553009.23126608 0 0 1 -.2455844.2314018.24553009.23126608 0 0 1 -.2455844-.2314018.24553009.23126608 0 0 1  .2455844-.2310285z" fill="#d0d0d0"/></svg>

<?xml version="1.0" encoding="UTF-8" standalone="no"?>
<!-- Created with Inkscape (http://www.inkscape.org/) -->

<svg
   xmlns:dc="http://purl.org/dc/elements/1.1/"
   xmlns:cc="http://creativecommons.org/ns#"
   xmlns:rdf="http://www.w3.org/1999/02/22-rdf-syntax-ns#"
   xmlns:svg="http://www.w3.org/2000/svg"
   xmlns="http://www.w3.org/2000/svg"
   xmlns:sodipodi="http://sodipodi.sourceforge.net/DTD/sodipodi-0.dtd"
   xmlns:inkscape="http://www.inkscape.org/namespaces/inkscape"
   width="16"
   height="16"
   viewBox="0 0 4.2333332 4.2333332"
   version="1.1"
   id="svg8"
   inkscape:version="0.92+devel (d0390b9f4f, 2017-07-31, custom)"
   sodipodi:docname="glyph-fish.svg">
  <defs
     id="defs2" />
  <sodipodi:namedview
     id="base"
     pagecolor="#002466"
     bordercolor="#ffffff"
     borderopacity="0.38039216"
     inkscape:pageopacity="1"
     inkscape:pageshadow="2"
     inkscape:zoom="36.415999"
     inkscape:cx="10.094581"
     inkscape:cy="7.9162778"
     inkscape:document-units="px"
     inkscape:current-layer="svg8"
     inkscape:document-rotation="0"
     showgrid="false"
     inkscape:showpageshadow="false"
     borderlayer="true"
     inkscape:window-width="1920"
     inkscape:window-height="1051"
     inkscape:window-x="0"
     inkscape:window-y="0"
     inkscape:window-maximized="1"
     units="px" />
  <metadata
     id="metadata5">
    <rdf:RDF>
      <cc:Work
         rdf:about="">
        <dc:format>image/svg+xml</dc:format>
        <dc:type
           rdf:resource="http://purl.org/dc/dcmitype/StillImage" />
        <dc:title></dc:title>
      </cc:Work>
    </rdf:RDF>
  </metadata>
  <path
     style="fill:#d0d0d0;stroke:none;stroke-width:0.26458332px;stroke-linecap:butt;stroke-linejoin:miter;stroke-opacity:1"
     d="M 2.5887141,0.32171107 C 2.3498294,0.33548487 1.6267546,0.31035337 1.1510373,0.66993347 1.2809329,0.81949447 1.5166378,1.0654684 1.5731589,1.1917072 1.4522491,1.3024138 1.1606214,1.6168289 1.0719128,1.7149738 0.99036311,1.8051982 0.87127537,1.7239511 0.801322,1.6071107 0.68784362,1.4175722 0.52151762,1.1941887 3.8520724e-8,1.1532646 c 0,0 0.04541540147928,0.8435263 0.475120101479276,0.9633032 C 0.18241552,2.2709835 -0.03430512,2.6054346 0.03694968,3.0959199 0.43068995,3.0573139 0.65448932,2.8604668 0.79497712,2.6361021 0.93546489,2.4117374 1.0437756,2.4818581 1.168579,2.5954201 1.2933824,2.7089824 1.8624821,3.3423753 2.4099376,3.4116714 2.3531336,3.6074241 2.2631773,3.7496015 2.0654475,3.9095585 2.6205876,3.9400365 3.1228725,3.6295245 3.2422375,3.2030365 3.3388538,3.1564547 3.5903013,3.0144431 3.9539847,2.6566297 4.3712385,2.2461103 4.2454538,1.9235387 4.0622209,1.6634682 3.9182325,1.4590993 3.450072,0.97821027 3.169458,0.86699817 3.0718983,0.72718017 2.8523,0.44770287 2.5887141,0.32171107 Z M 3.3881699,1.5093248 A 0.24553009,0.23126608 0 0 1 3.6337543,1.7403533 0.24553009,0.23126608 0 0 1 3.3881699,1.9717551 0.24553009,0.23126608 0 0 1 3.1425855,1.7403533 0.24553009,0.23126608 0 0 1 3.3881699,1.5093248 Z"
     id="path825"
     inkscape:connector-curvature="0"
     inkscape:label="#" />
</svg>
